X: 18565
T: I Looked East And I Looked West
R: polka
M: 2/4
K: Gmajor
GB B/c/B/A/|FAA B/A/|GABc|^cd=cA|
GB B/c/B/A/|FA A3/2B/|cAFA|FGGB:|
dg f/g/f/e/|fA A3/2B/|cdef|fg f/g/f/e/|
dg f/g/f/e/|fA A3/2B/|cAFA|FGG2:|

